packages/core/src/svgs/tokens/branded/HOT.svg

<svg width="24" height="24" viewBox="0 0 24 24" fill="none" xmlns="http://www.w3.org/2000/svg">
<path d="M2.51878 4.77194C2.51878 4.77194 1.97997 4.79012 2.00058 4.82104C2.1133 5.13075 2.85999 6.83504 2.8703 6.84535C5.5619 7.0599 7.41894 8.186 8.37352 10.7903H6.84983L5.9298 13.2141C5.9298 13.2141 8.12623 13.211 8.37413 13.2141C7.61046 15.6541 5.4807 17.0808 2.96181 17.0808C2.85455 17.3342 2.07573 19.1434 2.1133 19.1561C6.47587 19.6615 10.593 16.4414 10.9924 13.2141H12.936C12.936 13.6273 13.2566 14.3838 13.4888 14.8807C14.9011 17.7245 17.9563 19.3548 21.0794 19.2699C21.5909 19.2598 21.9794 19.1973 21.9588 19.1458L21.0897 17.1317C18.6308 16.9372 15.8931 15.953 15.3501 13.2141H16.8774C16.8986 13.2141 17.7198 10.7898 17.7198 10.7898H15.3301C16.1805 8.21388 18.4938 6.89383 21.1509 6.85625C21.1509 6.85625 21.7388 5.52894 22 4.85195C18.0592 4.11314 13.5979 6.71928 12.9264 10.7903H11.0234C10.5427 6.53806 5.92919 4.59679 2.51878 4.77194Z" fill="#007F88"/>
</svg>

<svg xmlns="http://www.w3.org/2000/svg" width="24" height="24" fill="none" viewBox="0 0 24 24">
    <path fill="#007F88" d="M2.519 4.772S1.98 4.79 2 4.82c.112.31.859 2.014.87 2.024 2.69.215 4.548 1.341 5.503 3.945H6.85l-.92 2.424s2.196-.003 2.444 0c-.764 2.44-2.893 3.867-5.412 3.867-.107.253-.886 2.062-.849 2.075 4.363.506 8.48-2.715 8.88-5.942h1.943c0 .413.32 1.17.553 1.667 1.412 2.843 4.467 4.474 7.59 4.389.512-.01.9-.073.88-.124l-.87-2.014c-2.458-.195-5.196-1.179-5.739-3.918h1.527c.022 0 .843-2.424.843-2.424h-2.39c.85-2.576 3.164-3.896 5.82-3.934 0 0 .589-1.327.85-2.004-3.94-.739-8.402 1.867-9.074 5.938h-1.903c-.48-4.252-5.094-6.193-8.504-6.018"/>
</svg>
